Sources/FrostedUI/Resources/Icons.xcassets/people224.imageset/people-2-24.svg

<svg width="24" height="24" viewBox="0 0 24 24" fill="none" xmlns="http://www.w3.org/2000/svg" data-fui-icon="true">
  <path
    d="M8.3999 1.65039C11.4649 1.65048 13.9496 4.13516 13.9497 7.2002C13.9496 8.86396 13.2158 10.355 12.0562 11.3721C14.8482 12.5452 16.2356 14.8051 16.9067 16.5537C17.5957 18.3491 16.9502 20.4303 15.0728 21.2432C13.7092 21.8334 11.666 22.3496 8.69971 22.3496C5.51588 22.3496 3.39685 21.7543 2.03955 21.1123C0.390523 20.3323 -0.244353 18.5194 0.212402 16.8662C0.705519 15.0817 1.90329 12.6307 4.75635 11.3838C3.58903 10.3665 2.85021 8.87023 2.8501 7.2002C2.8502 4.13517 5.33488 1.6505 8.3999 1.65039ZM10.3755 12.3857C9.76156 12.6198 9.09603 12.75 8.3999 12.75C7.70679 12.75 7.04387 12.6208 6.43213 12.3887C3.35008 13.197 2.14309 15.5091 1.65771 17.2656C1.36539 18.3237 1.78747 19.3341 2.68115 19.7568C3.8109 20.2911 5.70599 20.8496 8.69971 20.8496C11.4899 20.8496 13.3263 20.3643 14.4771 19.8662C15.5065 19.4203 15.9524 18.253 15.5063 17.0908C14.8387 15.3515 13.4195 13.1651 10.3755 12.3857ZM16.1997 2.84961C18.6018 2.8497 20.5499 4.79718 20.5503 7.19922C20.5503 8.36453 20.0905 9.42206 19.3442 10.2031C21.2978 11.055 22.3609 12.5043 22.9224 13.7158C23.6019 15.1827 23.225 16.9746 21.8042 17.9072C21.3363 18.2142 20.7553 18.5145 20.0454 18.7607C19.6544 18.8962 19.2273 18.6895 19.0913 18.2988C18.9556 17.9076 19.163 17.4796 19.5542 17.3438C20.1453 17.1387 20.6146 16.8937 20.981 16.6533C21.7121 16.1734 21.9635 15.2155 21.561 14.3467C21.0357 13.2132 19.9751 11.8252 17.7847 11.25C17.2933 11.4425 16.7592 11.5498 16.1997 11.5498C15.7857 11.5496 15.4498 11.2138 15.4497 10.7998C15.4499 10.3859 15.7858 10.05 16.1997 10.0498C17.7736 10.0497 19.0503 8.77318 19.0503 7.19922C19.0499 5.62561 17.7734 4.3497 16.1997 4.34961C16.0372 4.34963 15.8782 4.36283 15.7241 4.38867C15.3156 4.4572 14.9294 4.18193 14.8608 3.77344C14.7925 3.36506 15.0677 2.97867 15.4761 2.91016C15.7118 2.87061 15.9537 2.84963 16.1997 2.84961ZM8.3999 3.15039C6.1633 3.1505 4.3502 4.9636 4.3501 7.2002C4.3503 9.43672 6.16336 11.2499 8.3999 11.25C10.6365 11.2499 12.4495 9.43673 12.4497 7.2002C12.4496 4.96359 10.6365 3.15048 8.3999 3.15039Z"
    fill="currentColor"
  />
</svg>

<svg xmlns="http://www.w3.org/2000/svg" width="24" height="24" fill="none" data-fui-icon="true" viewBox="0 0 24 24"><path fill="currentColor" d="M8.4 1.65a5.55 5.55 0 0 1 5.55 5.55 5.54 5.54 0 0 1-1.894 4.172c2.792 1.173 4.18 3.433 4.85 5.182.69 1.795.044 3.876-1.833 4.69-1.364.59-3.407 1.106-6.373 1.106-3.184 0-5.303-.596-6.66-1.238-1.65-.78-2.284-2.593-1.828-4.246.494-1.784 1.691-4.235 4.544-5.482A5.55 5.55 0 0 1 8.4 1.65m1.976 10.736a5.53 5.53 0 0 1-3.944.003c-3.082.808-4.289 3.12-4.774 4.877-.293 1.058.13 2.068 1.023 2.49 1.13.535 3.025 1.094 6.019 1.094 2.79 0 4.626-.486 5.777-.984 1.03-.446 1.475-1.613 1.03-2.775-.668-1.74-2.088-3.926-5.131-4.705M16.2 2.85a4.35 4.35 0 0 1 4.35 4.35c0 1.165-.46 2.222-1.206 3.003 1.954.852 3.017 2.301 3.578 3.513.68 1.467.303 3.259-1.118 4.191a8 8 0 0 1-1.759.854.75.75 0 0 1-.49-1.417 6.4 6.4 0 0 0 1.426-.69c.731-.48.982-1.438.58-2.307-.525-1.134-1.586-2.522-3.776-3.097-.492.193-1.026.3-1.585.3a.75.75 0 0 1 0-1.5 2.851 2.851 0 1 0-.476-5.661.75.75 0 1 1-.248-1.479q.355-.06.724-.06m-7.8.3a4.05 4.05 0 1 0 0 8.1 4.05 4.05 0 0 0 0-8.1"/></svg>
